X:2
T:Lady MacKenzie Of Gairloch
C:Traditional
R:Strathspey
M:C
L:1/8
K:D
[| {gcd}c<{e}A {gef}e>A {gf}g>A {gef}e>d | {gBd}B<{e}G {dc}d>B {gf}g>e {Gdc}d<{e}B | {gcd}c<{e}A {gef}e>A {gf}g>A {gef}e>d | {gBd}B<{e}G {dc}d>B {gef}e2 {AGAG}A<a |
{cd}c<{e}A {gef}e>A {gf}g>A {gef}e>d | {gBd}B<{e}G {dc}d>B {gf}g>e {Gdc}d<{e}B | {gcd}c<{e}A {gef}e>A {gf}g>A {gef}e>d | {gBd}B<{e}G {dc}d>B {gef}e2 {AGAG}A>e || 
{ag}a2 e/f/g {ag}a>e {gcd}c<{e}A | {gf}g2 {a}B/c/d {gf}g>d {gBd}B<{e}G | {ag}a2 e/f/g {ag}a>e {gcd}c<{e}A | {gBd}B<{e}G {dc}d>B {gef}e2 {AGAG}A>e |
{ag}a2 e/f/g {ag}a>e {gcd}c<{e}A | {gf}g2 {a}B/c/d {g}e/f/g {Bd}B<{e}G | {g}A>B {GdG}c>d {gef}e>d {g}e/f/g | {Bd}B<{e}G {dc}d>B {gef}e2 {AGAG}A<a ||
{cd}c<{e}A {gAGAG}A2 {gf}g>A {gef}e>d | {gBd}B>{g}A {d}G>{d}B {gf}g>e {Gdc}d<{e}B | {gcd}c<{e}A {gAGAG}A2 {gf}g>A {gef}e>d | {gBd}B<{e}G {dc}d>B {gef}e2 {AGAG}A<a |
{cd}c<{e}A {gAGAG}A2 {gf}g>A {gef}e>d | {gBd}B>{g}A {d}G>{d}B {gf}g>e {Gdc}d<{e}B | {gcd}c<{e}A {gAGAG}A2 {gf}g>A {gef}e>d | {gBd}B<{e}G {dc}d>B {gef}e2 {AGAG}A>e ||
{ag}a2 e/f/g {a}f/e/d {gcd}c<{e}A | {gf}g2 {a}B/c/d {g}e/f/g {Bd}B<{e}G | {ag}a2 e/f/g {a}f/e/d {gcd}c<{e}A | {gBd}B<{e}G {dc}d>B {gef}e2 {AGAG}A>e |
{ag}a2 e/f/g {a}f/e/d {gcd}c<{e}A | {g}B/c/d {g}e/f/g {a}f/e/d {gBd}B<{e}G | {g}A>{d}c {g}B/c/d {gef}e>d {gcd}c<A | {gBd}B<{e}G {dc}d>B {gef}e2 {AGAG}A2 |]

